X: 32911
T: Pouca, The
R: reel
M: 4/4
K: Dmajor
|:fe|dBBA BcdB|AGFG AB (3cBA|d2 cd efge|fgfd egfe|
dBBA BcdB|AGFG AB (3cBA|d2 cd efge|fgec d2:|
|:fg|a2 fa gfeg|f2 df edBA|d2 cd efge|f2 df e2 fg|
a2 fa gfeg|f2 df edBA|d2 cd efge|fgec d2:|

